icon/fa/mosquito.svg

<svg xmlns="http://www.w3.org/2000/svg" viewBox="0 0 640 512"><!--! Font Awesome Free 6.1.2 by @fontawesome - https://fontawesome.com License - https://fontawesome.com/license/free (Icons: CC BY 4.0, Fonts: SIL OFL 1.1, Code: MIT License) Copyright 2022 Fonticons, Inc.--><path d="m430.3 503.8-48-56c-3.9-4.4-6-10.1-6-16.1v-55.4l-25.2-31.6v63.1c0 17.6-13.4 32-32 32-16.8 0-32-14.4-32-32v-63.1l-23.4 31.6v55.4c0 6-2.1 11.7-6 16.1l-48 56c-8.6 10-23.6 11-33.4 2.1-9.8-8.9-10.7-24.3-2-34.3l42-49.1v-54.7c0-5.5 1.8-10.8 5.2-15.1l65.6-86.4v-.3L154.6 387.8C97.58 447.6 0 405.2 0 320.6c0-47.9 34.02-88.3 79.35-94.2l152.95-23.9-40.8-40.9c-7.8-7.8-9.4-20.1-3.9-29.8l23.9-41.74-38.2-50.88c-8-10.64-6.1-25.92 4.2-34.134 10.4-8.216 25.2-6.253 33.2 4.383l48 63.911c5.9 7.87 6.6 18.65 1.7 27.26L237.8 140l49.3 50.3v-38.2c0-14.9 11.1-27.4 24-31V63.93c0-4.42 4.5-8 8-8 5.3 0 8 3.58 8 8v57.17c14.7 3.6 24 16.1 24 31v38.2l51.1-50.3-22.6-39.4c-4.9-8.61-4.2-19.39 1.7-27.26l48-63.911c8-10.636 22.8-12.598 33.2-4.382 10.3 8.213 12.2 23.503 4.2 34.133l-38.2 50.88 23.9 41.74c5.5 9.7 3.9 22-3.9 29.8l-40.8 40.9 152.9 23.9c44.5 5.9 79.4 46.3 79.4 94.2 0 84.6-97.6 127-154.6 67.2L351.1 266v.3l67.4 86.4c3.4 4.3 5.2 9.6 5.2 15.1v54.7l42 49.1c8.7 10 7.8 25.4-2 34.3-9.8 8.9-24.8 7.9-33.4-2.1z"/></svg>

<svg xmlns="http://www.w3.org/2000/svg" viewBox="0 0 640 512" height="1em" width="1em">
<!--! Font Awesome Free 6.1.2 by @fontawesome - https://fontawesome.com License - https://fontawesome.com/license/free (Icons: CC BY 4.0, Fonts: SIL OFL 1.1, Code: MIT License) Copyright 2022 Fonticons, Inc.-->
  <path d="M430.3 503.8L382.3 447.8C378.4 443.4 376.3 437.7 376.3 431.7V376.3L351.1 344.7V407.8C351.1 425.4 337.7 439.8 319.1 439.8C302.3 439.8 287.1 425.4 287.1 407.8V344.7L263.7 376.3V431.7C263.7 437.7 261.6 443.4 257.7 447.8L209.7 503.8C201.1 513.8 186.1 514.8 176.3 505.9C166.5 497 165.6 481.6 174.3 471.6L216.3 422.5V367.8C216.3 362.3 218.1 357 221.5 352.7L287.1 266.3V266L154.6 387.8C97.58 447.6 .0003 405.2 0 320.6C0 272.7 34.02 232.3 79.35 226.4L232.3 202.5L191.5 161.6C183.7 153.8 182.1 141.5 187.6 131.8L211.5 90.06L173.3 39.18C165.3 28.54 167.2 13.26 177.5 5.046C187.9-3.17 202.7-1.207 210.7 9.429L258.7 73.34C264.6 81.21 265.3 91.99 260.4 100.6L237.8 140L287.1 190.3V152.1C287.1 137.2 298.2 124.7 311.1 121.1V63.93C311.1 59.51 315.6 55.93 319.1 55.93C324.4 55.93 327.1 59.51 327.1 63.93V121.1C341.8 124.7 351.1 137.2 351.1 152.1V190.3L402.2 140L379.6 100.6C374.7 91.99 375.4 81.21 381.3 73.34L429.3 9.429C437.3-1.207 452.1-3.169 462.5 5.047C472.8 13.26 474.7 28.55 466.7 39.18L428.5 90.06L452.4 131.8C457.9 141.5 456.3 153.8 448.5 161.6L407.7 202.5L560.6 226.4C605.1 232.3 640 272.7 640 320.6C640 405.2 542.4 447.6 485.4 387.8L351.1 266V266.3L418.5 352.7C421.9 357 423.7 362.3 423.7 367.8V422.5L465.7 471.6C474.4 481.6 473.5 497 463.7 505.9C453.9 514.8 438.9 513.8 430.3 503.8L430.3 503.8z"/>
</svg>
